X:1
T:Calming Dusk
M:4/4
L:1/8
K:Dm
A2 F2 F2 G2|A4 A2 G2| F2 E2 D4|D2 C2 D2 F2|
A2 F2 F2 G2|A4 A2 G2| F2 E2 D4|D4 D2 z2||